nova/resources/svg/fluent/edit.svg

<svg width="24" height="24" viewBox="0 0 24 24" fill="none" xmlns="http://www.w3.org/2000/svg">
<path d="M21.0302 2.96967C22.4276 4.36713 22.4276 6.63287 21.0302 8.03033L9.06186 19.9987C8.78498 20.2755 8.44064 20.4754 8.06288 20.5784L2.94719 21.9736C2.38732 22.1263 1.87359 21.6125 2.02628 21.0527L3.42147 15.937C3.52449 15.5592 3.72432 15.2149 4.0012 14.938L15.9695 2.96967C17.367 1.57221 19.6327 1.57221 21.0302 2.96967ZM15 6.06057L5.06186 15.9987C4.96956 16.0909 4.90296 16.2057 4.86861 16.3316L3.81877 20.1811L7.6682 19.1312C7.79412 19.0969 7.9089 19.0303 8.0012 18.938L17.939 8.99957L15 6.06057ZM17.0302 4.03033L16.06 4.99957L18.999 7.93957L19.9695 6.96967C20.7812 6.15799 20.7812 4.84201 19.9695 4.03033C19.1578 3.21865 17.8419 3.21865 17.0302 4.03033Z" fill="currentColor"/>
</svg>

<svg viewBox="0 0 24 24" fill="none" xmlns="http://www.w3.org/2000/svg"><path d="M21.03 2.97a3.579 3.579 0 010 5.06L9.062 20a2.25 2.25 0 01-1 .58l-5.115 1.395a.75.75 0 01-.92-.921l1.394-5.116a2.25 2.25 0 01.58-.999L15.97 2.97a3.578 3.578 0 015.061 0zM15 6.06L5.062 16a.75.75 0 00-.193.333l-1.05 3.85 3.85-1.05A.75.75 0 008 18.937L17.94 9 15 6.06zm2.03-2.03l-.97.97 2.939 2.94.97-.97a2.078 2.078 0 10-2.939-2.94z" fill="currentColor"/></svg>
